svgs/sharp-thin/engine-warning.svg

<svg xmlns="http://www.w3.org/2000/svg" viewBox="0 0 640 512"><!--! Font Awesome Pro 6.6.0 by @fontawesome - https://fontawesome.com License - https://fontawesome.com/license (Commercial License) Copyright 2024 Fonticons, Inc. --><path d="M408 80l8 0 0-16-8 0L304 64 200 64l-8 0 0 16 8 0 96 0 0 48-136 0-80 0-16 0 0 16 0 104-48 0 0-80 0-8L0 160l0 8L0 344l0 8 16 0 0-8 0-80 48 0 0 104 0 16 16 0 99.2 0L256 448l240 0 16 0 0-16 0-240-96-64-80 0-24 0 0-48 96 0zM80 264l0-16 0-104 80 0 144 0 32 0 75.2 0L496 200.6 496 432l-234.2 0-72.3-60.3L185 368l-5.8 0L80 368l0-104zm480-56l64 0 0 224-64 0 0-224zm-16-16l0 16 0 224 0 16 16 0 64 0 16 0 0-16 0-224 0-16-16 0-64 0-16 0zM288 336l0 16 0 16 16 0 16 0 0-16 0-16-16 0-16 0zm24-152l0-8-16 0 0 8 0 120 0 8 16 0 0-8 0-120z"/></svg>

<svg xmlns="http://www.w3.org/2000/svg" viewBox="0 0 640 512"><!--! Font Awesome Pro 6.5.2 by @fontawesome - https://fontawesome.com License - https://fontawesome.com/license (Commercial License) Copyright 2024 Fonticons, Inc. --><path d="M408 80l8 0V64h-8H304 200h-8V80h8l96 0v48H160 80 64v16V248H16V168v-8H0v8V344v8H16v-8V264H64V368v16H80h99.2L256 448H496h16V432 192l-96-64H336 312V80l96 0zM80 264V248 144h80l144 0 32 0h75.2L496 200.6V432H261.8l-72.3-60.3L185 368h-5.8H80V264zm480-56h64V432H560V208zm-16-16v16V432v16h16 64 16V432 208 192H624 560 544zM288 352v16h16 16V352 336H304 288v16zm24-168v-8H296v8V304v8h16v-8V184z"/></svg>
